X: 1
T: Pirrie Wirrie
M: 4/4
L: 1/8
R: reel
K: Gmaj
|:BG~G2 BGcA|BG (3Bcd gded|BGcA BGGB|A=FAB cBAG|
BG~G2 BGcA|BG (3Bcd gded|BGcA BGGB|A=FAB c3 A:|
|:Bdd^c dedc|(3Bcd de gded|Bdd^c dedB|A=FAB c3 A|
Bdd^c dedc|Bdde g2 de|gbeg dgdB|A=FAB cBAG:|
